assets/img/icons/campaign.svg

<svg fill="none" height="55" viewBox="0 0 54 55" width="54" xmlns="http://www.w3.org/2000/svg" xmlns:xlink="http://www.w3.org/1999/xlink"><linearGradient id="a" gradientUnits="userSpaceOnUse" x1="26.3235" x2="26.3236" y1="13.4569" y2="35.3667"><stop offset="0" stop-color="#4c98ed"/><stop offset="1" stop-color="#e5a7de"/></linearGradient><path d="m47.2844 5.26416h-42.10886v4.436h42.10886z" fill="#6471b9"/><path clip-rule="evenodd" d="m46.3235 5.80703h-40.00001c-.22092 0-.4.17909-.4.4v40.62757c0 .2209.17908.4.4.4h40.00001c.2209 0 .4-.1791.4-.4v-40.62757c0-.22091-.1791-.4-.4-.4zm-40.00001-1.6h40.00001c1.1046 0 2 .89543 2 2v40.62757c0 1.1045-.8954 2-2 2h-40.00001c-1.10457 0-2-.8955-2-2v-40.62757c0-1.10457.89543-2 2-2z" fill="#2e3c47" fill-rule="evenodd"/><path clip-rule="evenodd" d="m46.3235 5.80703h-40.00001c-.22092 0-.4.17909-.4.4v40.62757c0 .2209.17908.4.4.4h40.00001c.2209 0 .4-.1791.4-.4v-40.62757c0-.22091-.1791-.4-.4-.4zm-40.00001-1.6h40.00001c1.1046 0 2 .89543 2 2v40.62757c0 1.1045-.8954 2-2 2h-40.00001c-1.10457 0-2-.8955-2-2v-40.62757c0-1.10457.89543-2 2-2z" fill="#2e3c47" fill-rule="evenodd"/><path d="m11.1165 13.457h30.4141v21.9097h-30.4141z" fill="url(#a)"/><path clip-rule="evenodd" d="m10.9189 42.145c0-.2761.2239-.5.5-.5h18.4603c.2762 0 .5.2239.5.5 0 .2762-.2238.5-.5.5h-18.4603c-.2761 0-.5-.2238-.5-.5z" fill="#2e3c47" fill-rule="evenodd"/><path clip-rule="evenodd" d="m10.9189 38.8916c0-.2761.2239-.5.5-.5h28.8189c.2762 0 .5.2239.5.5s-.2238.5-.5.5h-28.8189c-.2761 0-.5-.2239-.5-.5z" fill="#2e3c47" fill-rule="evenodd"/><path d="m31.9834 18.3656 2.6662-1.015v12.4812l-2.6662-1.0784z" fill="#fff"/><path clip-rule="evenodd" d="m35.4022 16.0758c.2296.1471.3685.401.3685.6737v13.3793c0 .2627-.129.5087-.3451.6581-.216.1494-.4917.1831-.7375.0904l-8.38-3.1636h-2.9777v4.3604c0 .4419-.3582.8-.8.8h-3.1742c-.4419 0-.8-.3581-.8-.8v-4.3604h-.8785c-.4418 0-.8-.3582-.8-.8v-6.1764c0-.4419.3582-.8.8-.8h8.4544l8.5041-3.9145c.2477-.1141.5364-.0941.766.053zm-12.8571 10.0379c-.0049-.0001-.0098-.0002-.0147-.0002h-3.1742c-.005 0-.0099.0001-.0148.0002h-.8637v-4.5764h7.0463v4.5764zm-2.3889 1.6v3.5604h1.5742v-3.5604zm6.9682-6.4719v5.0698l7.0463 2.6601v-10.9733z" fill="#2e3c47" fill-rule="evenodd"/></svg>

<svg width="54" height="55" viewBox="0 0 54 55" fill="none" xmlns="http://www.w3.org/2000/svg">
<path d="M47.2844 5.26416H5.17554V9.70016H47.2844V5.26416Z" fill="#6471B9"/>
<path fill-rule="evenodd" clip-rule="evenodd" d="M46.3235 5.80703H6.32349C6.10257 5.80703 5.92349 5.98612 5.92349 6.20703V46.8346C5.92349 47.0555 6.10257 47.2346 6.32349 47.2346H46.3235C46.5444 47.2346 46.7235 47.0555 46.7235 46.8346V6.20703C46.7235 5.98612 46.5444 5.80703 46.3235 5.80703ZM6.32349 4.20703H46.3235C47.4281 4.20703 48.3235 5.10246 48.3235 6.20703V46.8346C48.3235 47.9391 47.4281 48.8346 46.3235 48.8346H6.32349C5.21892 48.8346 4.32349 47.9391 4.32349 46.8346V6.20703C4.32349 5.10246 5.21892 4.20703 6.32349 4.20703Z" fill="#2E3C47"/>
<path fill-rule="evenodd" clip-rule="evenodd" d="M46.3235 5.80703H6.32349C6.10257 5.80703 5.92349 5.98612 5.92349 6.20703V46.8346C5.92349 47.0555 6.10257 47.2346 6.32349 47.2346H46.3235C46.5444 47.2346 46.7235 47.0555 46.7235 46.8346V6.20703C46.7235 5.98612 46.5444 5.80703 46.3235 5.80703ZM6.32349 4.20703H46.3235C47.4281 4.20703 48.3235 5.10246 48.3235 6.20703V46.8346C48.3235 47.9391 47.4281 48.8346 46.3235 48.8346H6.32349C5.21892 48.8346 4.32349 47.9391 4.32349 46.8346V6.20703C4.32349 5.10246 5.21892 4.20703 6.32349 4.20703Z" fill="#2E3C47"/>
<path d="M11.1165 13.457H41.5306V35.3667H11.1165V13.457Z" fill="url(#paint0_linear_5018_29897)"/>
<path fill-rule="evenodd" clip-rule="evenodd" d="M10.9189 42.145C10.9189 41.8689 11.1428 41.645 11.4189 41.645H29.8792C30.1554 41.645 30.3792 41.8689 30.3792 42.145C30.3792 42.4212 30.1554 42.645 29.8792 42.645H11.4189C11.1428 42.645 10.9189 42.4212 10.9189 42.145Z" fill="#2E3C47"/>
<path fill-rule="evenodd" clip-rule="evenodd" d="M10.9189 38.8916C10.9189 38.6155 11.1428 38.3916 11.4189 38.3916H40.2378C40.514 38.3916 40.7378 38.6155 40.7378 38.8916C40.7378 39.1677 40.514 39.3916 40.2378 39.3916H11.4189C11.1428 39.3916 10.9189 39.1677 10.9189 38.8916Z" fill="#2E3C47"/>
<path d="M31.9834 18.3656L34.6496 17.3506V29.8318L31.9834 28.7534V18.3656Z" fill="white"/>
<path fill-rule="evenodd" clip-rule="evenodd" d="M35.4022 16.0758C35.6318 16.2229 35.7707 16.4768 35.7707 16.7495V30.1288C35.7707 30.3915 35.6417 30.6375 35.4256 30.7869C35.2096 30.9363 34.9339 30.97 34.6881 30.8773L26.3081 27.7137H23.3304V32.0741C23.3304 32.516 22.9722 32.8741 22.5304 32.8741H19.3562C18.9143 32.8741 18.5562 32.516 18.5562 32.0741V27.7137H17.6777C17.2359 27.7137 16.8777 27.3555 16.8777 26.9137V20.7373C16.8777 20.2954 17.2359 19.9373 17.6777 19.9373H26.1321L34.6362 16.0228C34.8839 15.9087 35.1726 15.9287 35.4022 16.0758ZM22.5451 26.1137C22.5402 26.1136 22.5353 26.1135 22.5304 26.1135H19.3562C19.3512 26.1135 19.3463 26.1136 19.3414 26.1137H18.4777V21.5373H25.524V26.1137H22.5451ZM20.1562 27.7137V31.2741H21.7304V27.7137H20.1562ZM27.1244 21.2418V26.3116L34.1707 28.9717V17.9984L27.1244 21.2418Z" fill="#2E3C47"/>
<defs>
<linearGradient id="paint0_linear_5018_29897" x1="26.3235" y1="13.4569" x2="26.3236" y2="35.3667" gradientUnits="userSpaceOnUse">
<stop stop-color="#4C98ED"/>
<stop offset="1" stop-color="#E5A7DE"/>
</linearGradient>
</defs>
</svg>
